Newaita-dark/actions/24/view-calendar-special-occasion.svg

<svg height="24" viewBox="0 0 24 24" width="24" xmlns="http://www.w3.org/2000/svg"><g fill="#e0e0e0"><path d="m3.96875 2.171875c-1.097656 0-1.984375.886719-1.984375 1.984375v15.875c0 1.101562.886719 1.988281 1.984375 1.988281h15.875c1.101562 0 1.988281-.886719 1.988281-1.988281v-15.875c0-1.097656-.886719-1.984375-1.988281-1.984375zm.992188 1.984375h13.890624c.550782 0 .992188.441406.992188.992188v13.890624c0 .550782-.441406.992188-.992188.992188h-13.890624c-.550782 0-.992188-.441406-.992188-.992188v-13.890624c0-.550782.441406-.992188.992188-.992188zm0 0"/><path d="m16.867188 5.148438c.550781 0 .992187.445312.992187.992187s-.441406.992187-.992187.992187c-.546876 0-.992188-.445312-.992188-.992187s.445312-.992187.992188-.992187zm0 0"/><path d="m2.976562 8.125h17.863282v.992188h-17.863282zm0 0"/><path d="m6.945312 5.148438c.546876 0 .992188.445312.992188.992187s-.445312.992187-.992188.992187c-.546874 0-.992187-.445312-.992187-.992187s.445313-.992187.992187-.992187zm0 0"/><path d="m9.425781 10.589844c-.285156 0-.511719.230468-.511719.511718v.976563h-2.960937c-.195313 0-.378906.113281-.464844.289063-.082031.179687-.058593.390624.0625.546874l1.730469 2.15625-1.730469 2.160157c-.121093.15625-.144531.367187-.0625.542969.085938.179687.269531.292968.464844.292968h3.472656c.285157 0 .515625-.230468.515625-.515625v-.972656h3.933594v.972656c0 .285157.230469.515625.511719.515625h3.472656c.199219 0 .378906-.113281.464844-.292968.085937-.175782.0625-.386719-.0625-.542969l-1.726563-2.160157 1.726563-2.15625c.125-.15625.148437-.367187.0625-.546874-.085938-.175782-.265625-.289063-.464844-.289063h-2.957031v-.976563c0-.28125-.230469-.511718-.515625-.511718zm.515625 1.027344h3.933594v.972656c0 .285156.230469.515625.511719.515625h2.402343l-1.3125 1.644531c-.152343.1875-.152343.457031 0 .644531l1.3125 1.644531h-1.886718v-.976562c0-.28125-.230469-.511719-.515625-.511719h-4.960938c-.285156 0-.511719.230469-.511719.511719v.976562h-1.890624l1.316406-1.644531c.152344-.1875.152344-.457031 0-.644531l-1.316406-1.644531h2.402343c.285157 0 .515625-.230469.515625-.515625zm0 0"/></g></svg>

<svg xmlns="http://www.w3.org/2000/svg" xmlns:xlink="http://www.w3.org/1999/xlink" width="24px" height="24px" viewBox="0 0 24 24" version="1.1">
<g id="surface1">
     <defs>
  <style id="current-color-scheme" type="text/css">
   .ColorScheme-Text { color:#eeeeee; } .ColorScheme-Highlight { color:#424242; }
  </style>
 </defs>
<path style="fill:currentColor" class="ColorScheme-Text" d="M 3.96875 2.171875 C 2.871094 2.171875 1.984375 3.058594 1.984375 4.15625 L 1.984375 20.03125 C 1.984375 21.132812 2.871094 22.019531 3.96875 22.019531 L 19.84375 22.019531 C 20.945312 22.019531 21.832031 21.132812 21.832031 20.03125 L 21.832031 4.15625 C 21.832031 3.058594 20.945312 2.171875 19.84375 2.171875 Z M 4.960938 4.15625 L 18.851562 4.15625 C 19.402344 4.15625 19.84375 4.597656 19.84375 5.148438 L 19.84375 19.039062 C 19.84375 19.589844 19.402344 20.03125 18.851562 20.03125 L 4.960938 20.03125 C 4.410156 20.03125 3.96875 19.589844 3.96875 19.039062 L 3.96875 5.148438 C 3.96875 4.597656 4.410156 4.15625 4.960938 4.15625 Z M 4.960938 4.15625 "/>
     <defs>
  <style id="current-color-scheme" type="text/css">
   .ColorScheme-Text { color:#eeeeee; } .ColorScheme-Highlight { color:#424242; }
  </style>
 </defs>
<path style="fill:currentColor" class="ColorScheme-Text" d="M 16.867188 5.148438 C 17.417969 5.148438 17.859375 5.59375 17.859375 6.140625 C 17.859375 6.6875 17.417969 7.132812 16.867188 7.132812 C 16.320312 7.132812 15.875 6.6875 15.875 6.140625 C 15.875 5.59375 16.320312 5.148438 16.867188 5.148438 Z M 16.867188 5.148438 "/>
     <defs>
  <style id="current-color-scheme" type="text/css">
   .ColorScheme-Text { color:#eeeeee; } .ColorScheme-Highlight { color:#424242; }
  </style>
 </defs>
<path style="fill:currentColor" class="ColorScheme-Text" d="M 2.976562 8.125 L 20.839844 8.125 L 20.839844 9.117188 L 2.976562 9.117188 Z M 2.976562 8.125 "/>
     <defs>
  <style id="current-color-scheme" type="text/css">
   .ColorScheme-Text { color:#eeeeee; } .ColorScheme-Highlight { color:#424242; }
  </style>
 </defs>
<path style="fill:currentColor" class="ColorScheme-Text" d="M 6.945312 5.148438 C 7.492188 5.148438 7.9375 5.59375 7.9375 6.140625 C 7.9375 6.6875 7.492188 7.132812 6.945312 7.132812 C 6.398438 7.132812 5.953125 6.6875 5.953125 6.140625 C 5.953125 5.59375 6.398438 5.148438 6.945312 5.148438 Z M 6.945312 5.148438 "/>
     <defs>
  <style id="current-color-scheme" type="text/css">
   .ColorScheme-Text { color:#eeeeee; } .ColorScheme-Highlight { color:#424242; }
  </style>
 </defs>
<path style="fill:currentColor" class="ColorScheme-Text" d="M 9.425781 10.589844 C 9.140625 10.589844 8.914062 10.820312 8.914062 11.101562 L 8.914062 12.078125 L 5.953125 12.078125 C 5.757812 12.078125 5.574219 12.191406 5.488281 12.367188 C 5.40625 12.546875 5.429688 12.757812 5.550781 12.914062 L 7.28125 15.070312 L 5.550781 17.230469 C 5.429688 17.386719 5.40625 17.597656 5.488281 17.773438 C 5.574219 17.953125 5.757812 18.066406 5.953125 18.066406 L 9.425781 18.066406 C 9.710938 18.066406 9.941406 17.835938 9.941406 17.550781 L 9.941406 16.578125 L 13.875 16.578125 L 13.875 17.550781 C 13.875 17.835938 14.105469 18.066406 14.386719 18.066406 L 17.859375 18.066406 C 18.058594 18.066406 18.238281 17.953125 18.324219 17.773438 C 18.410156 17.597656 18.386719 17.386719 18.261719 17.230469 L 16.535156 15.070312 L 18.261719 12.914062 C 18.386719 12.757812 18.410156 12.546875 18.324219 12.367188 C 18.238281 12.191406 18.058594 12.078125 17.859375 12.078125 L 14.902344 12.078125 L 14.902344 11.101562 C 14.902344 10.820312 14.671875 10.589844 14.386719 10.589844 Z M 9.941406 11.617188 L 13.875 11.617188 L 13.875 12.589844 C 13.875 12.875 14.105469 13.105469 14.386719 13.105469 L 16.789062 13.105469 L 15.476562 14.75 C 15.324219 14.9375 15.324219 15.207031 15.476562 15.394531 L 16.789062 17.039062 L 14.902344 17.039062 L 14.902344 16.0625 C 14.902344 15.78125 14.671875 15.550781 14.386719 15.550781 L 9.425781 15.550781 C 9.140625 15.550781 8.914062 15.78125 8.914062 16.0625 L 8.914062 17.039062 L 7.023438 17.039062 L 8.339844 15.394531 C 8.492188 15.207031 8.492188 14.9375 8.339844 14.75 L 7.023438 13.105469 L 9.425781 13.105469 C 9.710938 13.105469 9.941406 12.875 9.941406 12.589844 Z M 9.941406 11.617188 "/>
</g>
</svg>
